docs/concepts/automation/img/edge_model.svg

<svg xmlns="http://www.w3.org/2000/svg" xmlns:xlink="http://www.w3.org/1999/xlink" width="820" height="341" contentScriptType="application/ecmascript" contentStyleType="text/css" style="width:820px;height:341px;background:#00000000" preserveAspectRatio="none" version="1.1" viewBox="0 0 820 341" zoomAndPan="magnify"><g><rect id="aws_ec2_instance" width="180" height="37" x="457.5" y="201" fill="#3d176e" codeLine="18" rx="2.5" ry="2.5" style="stroke:#000d19;stroke-width:1.5"/><ellipse cx="472.5" cy="219.5" fill="#e98df7" rx="11" ry="11" style="stroke:#000d19;stroke-width:1"/><path fill="#000" d="M474.9731,225.6431 Q474.3921,225.9419 473.7529,226.0913 Q473.1138,226.2407 472.4082,226.2407 Q469.9014,226.2407 468.5815,224.5889 Q467.2617,222.937 467.2617,219.8159 Q467.2617,216.6865 468.5815,215.0347 Q469.9014,213.3828 472.4082,213.3828 Q473.1138,213.3828 473.7612,213.5322 Q474.4087,213.6816 474.9731,213.9805 L474.9731,216.7031 Q474.3423,216.1221 473.7488,215.8523 Q473.1553,215.5825 472.5244,215.5825 Q471.1797,215.5825 470.4949,216.6492 Q469.8101,217.7158 469.8101,219.8159 Q469.8101,221.9077 470.4949,222.9744 Q471.1797,224.041 472.5244,224.041 Q473.1553,224.041 473.7488,223.7712 Q474.3423,223.5015 474.9731,222.9204 Z"/><text x="491.5" y="224.09" fill="#d9b8ff" font-family="Helvetica" font-size="17" lengthAdjust="spacing" textLength="138">aws_ec2_instance</text><rect id="aws_account" width="140" height="37" x="477.5" y="7" fill="#3d176e" rx="2.5" ry="2.5" style="stroke:#000d19;stroke-width:1.5"/><ellipse cx="492.5" cy="25.5" fill="#e98df7" rx="11" ry="11" style="stroke:#000d19;stroke-width:1"/><path fill="#000" d="M494.9731,31.6431 Q494.3921,31.9419 493.7529,32.0913 Q493.1138,32.2407 492.4082,32.2407 Q489.9014,32.2407 488.5815,30.5889 Q487.2617,28.937 487.2617,25.8159 Q487.2617,22.6865 488.5815,21.0347 Q489.9014,19.3828 492.4082,19.3828 Q493.1138,19.3828 493.7612,19.5322 Q494.4087,19.6816 494.9731,19.9805 L494.9731,22.7031 Q494.3423,22.1221 493.7488,21.8523 Q493.1553,21.5825 492.5244,21.5825 Q491.1797,21.5825 490.4949,22.6492 Q489.8101,23.7158 489.8101,25.8159 Q489.8101,27.9077 490.4949,28.9744 Q491.1797,30.041 492.5244,30.041 Q493.1553,30.041 493.7488,29.7712 Q494.3423,29.5015 494.9731,28.9204 Z"/><text x="511.5" y="30.09" fill="#d9b8ff" font-family="Helvetica" font-size="17" lengthAdjust="spacing" textLength="98">aws_account</text><rect id="aws_region" width="127" height="37" x="484" y="104" fill="#3d176e" rx="2.5" ry="2.5" style="stroke:#000d19;stroke-width:1.5"/><ellipse cx="499" cy="122.5" fill="#e98df7" rx="11" ry="11" style="stroke:#000d19;stroke-width:1"/><path fill="#000" d="M501.4731,128.6431 Q500.8921,128.9419 500.2529,129.0913 Q499.6138,129.2407 498.9082,129.2407 Q496.4014,129.2407 495.0815,127.5889 Q493.7617,125.937 493.7617,122.8159 Q493.7617,119.6865 495.0815,118.0347 Q496.4014,116.3828 498.9082,116.3828 Q499.6138,116.3828 500.2612,116.5322 Q500.9087,116.6816 501.4731,116.9805 L501.4731,119.7031 Q500.8423,119.1221 500.2488,118.8523 Q499.6553,118.5825 499.0244,118.5825 Q497.6797,118.5825 496.9949,119.6492 Q496.3101,120.7158 496.3101,122.8159 Q496.3101,124.9077 496.9949,125.9744 Q497.6797,127.041 499.0244,127.041 Q499.6553,127.041 500.2488,126.7712 Q500.8423,126.5015 501.4731,125.9204 Z"/><text x="518" y="127.09" fill="#d9b8ff" font-family="Helvetica" font-size="17" lengthAdjust="spacing" textLength="85">aws_region</text><rect id="aws_iam_role" width="145" height="37" x="7" y="201" fill="#3d176e" rx="2.5" ry="2.5" style="stroke:#000d19;stroke-width:1.5"/><ellipse cx="22" cy="219.5" fill="#e98df7" rx="11" ry="11" style="stroke:#000d19;stroke-width:1"/><path fill="#000" d="M24.4731,225.6431 Q23.8921,225.9419 23.2529,226.0913 Q22.6138,226.2407 21.9082,226.2407 Q19.4014,226.2407 18.0815,224.5889 Q16.7617,222.937 16.7617,219.8159 Q16.7617,216.6865 18.0815,215.0347 Q19.4014,213.3828 21.9082,213.3828 Q22.6138,213.3828 23.2612,213.5322 Q23.9087,213.6816 24.4731,213.9805 L24.4731,216.7031 Q23.8423,216.1221 23.2488,215.8523 Q22.6553,215.5825 22.0244,215.5825 Q20.6797,215.5825 19.9949,216.6492 Q19.3101,217.7158 19.3101,219.8159 Q19.3101,221.9077 19.9949,222.9744 Q20.6797,224.041 22.0244,224.041 Q22.6553,224.041 23.2488,223.7712 Q23.8423,223.5015 24.4731,222.9204 Z"/><text x="41" y="224.09" fill="#d9b8ff" font-family="Helvetica" font-size="17" lengthAdjust="spacing" textLength="103">aws_iam_role</text><rect id="aws_iam_instance_profile" width="235" height="37" x="187" y="201" fill="#3d176e" rx="2.5" ry="2.5" style="stroke:#000d19;stroke-width:1.5"/><ellipse cx="202" cy="219.5" fill="#e98df7" rx="11" ry="11" style="stroke:#000d19;stroke-width:1"/><path fill="#000" d="M204.4731,225.6431 Q203.8921,225.9419 203.2529,226.0913 Q202.6138,226.2407 201.9082,226.2407 Q199.4014,226.2407 198.0815,224.5889 Q196.7617,222.937 196.7617,219.8159 Q196.7617,216.6865 198.0815,215.0347 Q199.4014,213.3828 201.9082,213.3828 Q202.6138,213.3828 203.2612,213.5322 Q203.9087,213.6816 204.4731,213.9805 L204.4731,216.7031 Q203.8423,216.1221 203.2488,215.8523 Q202.6553,215.5825 202.0244,215.5825 Q200.6797,215.5825 199.9949,216.6492 Q199.3101,217.7158 199.3101,219.8159 Q199.3101,221.9077 199.9949,222.9744 Q200.6797,224.041 202.0244,224.041 Q202.6553,224.041 203.2488,223.7712 Q203.8423,223.5015 204.4731,222.9204 Z"/><text x="221" y="224.09" fill="#d9b8ff" font-family="Helvetica" font-size="17" lengthAdjust="spacing" textLength="193">aws_iam_instance_profile</text><rect id="aws_alb_target_group" width="206" height="37" x="468.5" y="298" fill="#3d176e" rx="2.5" ry="2.5" style="stroke:#000d19;stroke-width:1.5"/><ellipse cx="483.5" cy="316.5" fill="#e98df7" rx="11" ry="11" style="stroke:#000d19;stroke-width:1"/><path fill="#000" d="M485.9731,322.6431 Q485.3921,322.9419 484.7529,323.0913 Q484.1138,323.2407 483.4082,323.2407 Q480.9014,323.2407 479.5815,321.5889 Q478.2617,319.937 478.2617,316.8159 Q478.2617,313.6865 479.5815,312.0347 Q480.9014,310.3828 483.4082,310.3828 Q484.1138,310.3828 484.7612,310.5322 Q485.4087,310.6816 485.9731,310.9805 L485.9731,313.7031 Q485.3423,313.1221 484.7488,312.8523 Q484.1553,312.5825 483.5244,312.5825 Q482.1797,312.5825 481.4949,313.6492 Q480.8101,314.7158 480.8101,316.8159 Q480.8101,318.9077 481.4949,319.9744 Q482.1797,321.041 483.5244,321.041 Q484.1553,321.041 484.7488,320.7712 Q485.3423,320.5015 485.9731,319.9204 Z"/><text x="502.5" y="321.09" fill="#d9b8ff" font-family="Helvetica" font-size="17" lengthAdjust="spacing" textLength="164">aws_alb_target_group</text><rect id="aws_alb" width="103" height="37" x="710" y="298" fill="#3d176e" rx="2.5" ry="2.5" style="stroke:#000d19;stroke-width:1.5"/><ellipse cx="725" cy="316.5" fill="#e98df7" rx="11" ry="11" style="stroke:#000d19;stroke-width:1"/><path fill="#000" d="M727.4731,322.6431 Q726.8921,322.9419 726.2529,323.0913 Q725.6138,323.2407 724.9082,323.2407 Q722.4014,323.2407 721.0815,321.5889 Q719.7617,319.937 719.7617,316.8159 Q719.7617,313.6865 721.0815,312.0347 Q722.4014,310.3828 724.9082,310.3828 Q725.6138,310.3828 726.2612,310.5322 Q726.9087,310.6816 727.4731,310.9805 L727.4731,313.7031 Q726.8423,313.1221 726.2488,312.8523 Q725.6553,312.5825 725.0244,312.5825 Q723.6797,312.5825 722.9949,313.6492 Q722.3101,314.7158 722.3101,316.8159 Q722.3101,318.9077 722.9949,319.9744 Q723.6797,321.041 725.0244,321.041 Q725.6553,321.041 726.2488,320.7712 Q726.8423,320.5015 727.4731,319.9204 Z"/><text x="744" y="321.09" fill="#d9b8ff" font-family="Helvetica" font-size="17" lengthAdjust="spacing" textLength="61">aws_alb</text><path id="aws_account-to-aws_region" fill="none" d="M547.5,44.37 C547.5,59.63 547.5,81.68 547.5,98.3" codeLine="19" style="stroke:#ffaf37;stroke-width:2"/><polygon fill="#FFAF37" points="547.5 103.71 551.5 94.71 547.5 98.71 543.5 94.71 547.5 103.71" style="stroke:#ffaf37;stroke-width:2"/><path id="aws_region-to-aws_iam_role" fill="none" d="M483.9,136.41 C399.03,153.64 248.85,184.12 157.32,202.7" codeLine="20" style="stroke:#ffaf37;stroke-width:2"/><polygon fill="#FFAF37" points="152.19 203.74 161.802 205.887 157.092 202.754 160.224 198.044 152.19 203.74" style="stroke:#ffaf37;stroke-width:2"/><path id="aws_iam_role-to-aws_iam_instance_profile" fill="none" d="M152.01,219.5 C161.9,219.5 171.79,219.5 181.68,219.5" codeLine="21" style="stroke:#ffaf37;stroke-width:2"/><polygon fill="#FFAF37" points="186.86 219.5 177.86 215.5 181.86 219.5 177.86 223.5 186.86 219.5" style="stroke:#ffaf37;stroke-width:2"/><path id="aws_iam_instance_profile-to-aws_ec2_instance" fill="none" d="M422.2,219.5 C432.21,219.5 442.21,219.5 452.21,219.5" codeLine="22" style="stroke:#ffaf37;stroke-width:2"/><polygon fill="#FFAF37" points="457.44 219.5 448.44 215.5 452.44 219.5 448.44 223.5 457.44 219.5" style="stroke:#ffaf37;stroke-width:2"/><path id="aws_region-to-aws_ec2_instance" fill="none" d="M547.5,141.37 C547.5,156.63 547.5,178.68 547.5,195.3" codeLine="23" style="stroke:#ffaf37;stroke-width:2"/><polygon fill="#FFAF37" points="547.5 200.71 551.5 191.71 547.5 195.71 543.5 191.71 547.5 200.71" style="stroke:#ffaf37;stroke-width:2"/><path id="aws_region-to-aws_alb_target_group" fill="none" d="M587.99,141.02 C612.08,153.82 640.58,173.73 654.5,201 C672.53,236.33 634.75,272.67 604.42,294.67" codeLine="24" style="stroke:#ffaf37;stroke-width:2"/><polygon fill="#FFAF37" points="600 297.81 609.651 295.847 604.072 294.909 605.01 289.331 600 297.81" style="stroke:#ffaf37;stroke-width:2"/><path id="aws_ec2_instance-to-aws_alb_target_group" fill="none" d="M552.01,238.37 C555.9,253.76 561.54,276.06 565.75,292.73" codeLine="25" style="stroke:#ffaf37;stroke-width:2"/><polygon fill="#FFAF37" points="567.01 297.71 568.681 288.004 565.784 292.863 560.925 289.966 567.01 297.71" style="stroke:#ffaf37;stroke-width:2"/><path id="aws_region-to-aws_alb" fill="none" d="M589.05,141.07 C617.76,154.58 655.64,175.29 683.5,201 C712.95,228.18 737.11,268.49 750.39,293.32" codeLine="26" style="stroke:#ffaf37;stroke-width:2"/><polygon fill="#FFAF37" points="752.74 297.77 752.092 287.942 750.413 293.344 745.011 291.666 752.74 297.77" style="stroke:#ffaf37;stroke-width:2"/><path id="aws_region-to-aws_iam_instance_profile" fill="none" d="M502.65,141.04 C460.57,157.48 397.77,182.04 354.19,199.07" codeLine="27" style="stroke:#ffaf37;stroke-width:2"/><polygon fill="#FFAF37" points="349.5 200.91 359.339 201.344 354.154 199.083 356.416 193.897 349.5 200.91" style="stroke:#ffaf37;stroke-width:2"/><path id="aws_alb_target_group-to-aws_alb" fill="none" d="M674.66,316.5 C684.68,316.5 694.69,316.5 704.7,316.5" codeLine="28" style="stroke:#ffaf37;stroke-width:2"/><polygon fill="#FFAF37" points="709.94 316.5 700.94 312.5 704.94 316.5 700.94 320.5 709.94 316.5" style="stroke:#ffaf37;stroke-width:2"/></g></svg>

<svg xmlns="http://www.w3.org/2000/svg" width="820" height="341" preserveAspectRatio="none" style="width:820px;height:341px;background:#00000000"><rect width="180" height="37" x="457.5" y="201" fill="#3d176e" rx="2.5" ry="2.5" style="stroke:#000d19;stroke-width:1.5"/><circle cx="472.5" cy="219.5" r="11" fill="#e98df7" style="stroke:#000d19;stroke-width:1"/><path d="M474.973 225.643q-.58.299-1.22.448-.64.15-1.345.15-2.507 0-3.827-1.652-1.32-1.652-1.32-4.773 0-3.13 1.32-4.781 1.32-1.652 3.827-1.652.706 0 1.353.15.648.149 1.212.448v2.722q-.63-.58-1.224-.85t-1.225-.27q-1.344 0-2.03 1.066-.684 1.067-.684 3.167 0 2.092.685 3.158.685 1.067 2.03 1.067.63 0 1.224-.27.593-.27 1.224-.85Z"/><text x="491.5" y="224.09" fill="#d9b8ff" font-family="Helvetica" font-size="17" textLength="138">aws_ec2_instance</text><rect width="140" height="37" x="477.5" y="7" fill="#3d176e" rx="2.5" ry="2.5" style="stroke:#000d19;stroke-width:1.5"/><circle cx="492.5" cy="25.5" r="11" fill="#e98df7" style="stroke:#000d19;stroke-width:1"/><path d="M494.973 31.643q-.58.299-1.22.448-.64.15-1.345.15-2.507 0-3.827-1.652-1.32-1.652-1.32-4.773 0-3.13 1.32-4.781 1.32-1.652 3.827-1.652.706 0 1.353.15.648.149 1.212.447v2.723q-.63-.58-1.224-.85t-1.225-.27q-1.344 0-2.03 1.066-.684 1.067-.684 3.167 0 2.092.685 3.158.685 1.067 2.03 1.067.63 0 1.224-.27.593-.27 1.224-.85Z"/><text x="511.5" y="30.09" fill="#d9b8ff" font-family="Helvetica" font-size="17" textLength="98">aws_account</text><rect width="127" height="37" x="484" y="104" fill="#3d176e" rx="2.5" ry="2.5" style="stroke:#000d19;stroke-width:1.5"/><circle cx="499" cy="122.5" r="11" fill="#e98df7" style="stroke:#000d19;stroke-width:1"/><path d="M501.473 128.643q-.58.299-1.22.448-.64.15-1.345.15-2.507 0-3.827-1.652-1.32-1.652-1.32-4.773 0-3.13 1.32-4.781 1.32-1.652 3.827-1.652.706 0 1.353.15.648.149 1.212.448v2.722q-.63-.58-1.224-.85t-1.225-.27q-1.344 0-2.03 1.066-.684 1.067-.684 3.167 0 2.092.685 3.158.685 1.067 2.03 1.067.63 0 1.224-.27.593-.27 1.224-.85Z"/><text x="518" y="127.09" fill="#d9b8ff" font-family="Helvetica" font-size="17" textLength="85">aws_region</text><rect width="145" height="37" x="7" y="201" fill="#3d176e" rx="2.5" ry="2.5" style="stroke:#000d19;stroke-width:1.5"/><circle cx="22" cy="219.5" r="11" fill="#e98df7" style="stroke:#000d19;stroke-width:1"/><path d="M24.473 225.643q-.58.299-1.22.448-.64.15-1.345.15-2.507 0-3.827-1.652-1.32-1.652-1.32-4.773 0-3.13 1.32-4.781 1.32-1.652 3.827-1.652.706 0 1.353.15.648.149 1.212.448v2.722q-.63-.58-1.224-.85t-1.225-.27q-1.344 0-2.03 1.066-.684 1.067-.684 3.167 0 2.092.685 3.158.685 1.067 2.03 1.067.63 0 1.224-.27.593-.27 1.224-.85Z"/><text x="41" y="224.09" fill="#d9b8ff" font-family="Helvetica" font-size="17" textLength="103">aws_iam_role</text><rect width="235" height="37" x="187" y="201" fill="#3d176e" rx="2.5" ry="2.5" style="stroke:#000d19;stroke-width:1.5"/><circle cx="202" cy="219.5" r="11" fill="#e98df7" style="stroke:#000d19;stroke-width:1"/><path d="M204.473 225.643q-.58.299-1.22.448-.64.15-1.345.15-2.507 0-3.826-1.652-1.32-1.652-1.32-4.773 0-3.13 1.32-4.781 1.32-1.652 3.826-1.652.706 0 1.353.15.648.149 1.212.448v2.722q-.63-.58-1.224-.85t-1.225-.27q-1.344 0-2.03 1.066-.684 1.067-.684 3.167 0 2.092.685 3.158.685 1.067 2.03 1.067.63 0 1.224-.27.593-.27 1.224-.85Z"/><text x="221" y="224.09" fill="#d9b8ff" font-family="Helvetica" font-size="17" textLength="193">aws_iam_instance_profile</text><rect width="206" height="37" x="468.5" y="298" fill="#3d176e" rx="2.5" ry="2.5" style="stroke:#000d19;stroke-width:1.5"/><circle cx="483.5" cy="316.5" r="11" fill="#e98df7" style="stroke:#000d19;stroke-width:1"/><path d="M485.973 322.643q-.58.299-1.22.448-.64.15-1.345.15-2.507 0-3.827-1.652-1.32-1.652-1.32-4.773 0-3.13 1.32-4.781 1.32-1.652 3.827-1.652.706 0 1.353.15.648.149 1.212.447v2.723q-.63-.58-1.224-.85t-1.225-.27q-1.344 0-2.03 1.066-.684 1.067-.684 3.167 0 2.092.685 3.158.685 1.067 2.03 1.067.63 0 1.224-.27.593-.27 1.224-.85Z"/><text x="502.5" y="321.09" fill="#d9b8ff" font-family="Helvetica" font-size="17" textLength="164">aws_alb_target_group</text><rect width="103" height="37" x="710" y="298" fill="#3d176e" rx="2.5" ry="2.5" style="stroke:#000d19;stroke-width:1.5"/><circle cx="725" cy="316.5" r="11" fill="#e98df7" style="stroke:#000d19;stroke-width:1"/><path d="M727.473 322.643q-.58.299-1.22.448-.64.15-1.345.15-2.507 0-3.827-1.652-1.32-1.652-1.32-4.773 0-3.13 1.32-4.781 1.32-1.652 3.827-1.652.706 0 1.353.15.648.149 1.212.447v2.723q-.63-.58-1.224-.85t-1.225-.27q-1.344 0-2.03 1.066-.684 1.067-.684 3.167 0 2.092.685 3.158.685 1.067 2.03 1.067.63 0 1.224-.27.593-.27 1.224-.85Z"/><text x="744" y="321.09" fill="#d9b8ff" font-family="Helvetica" font-size="17" textLength="61">aws_alb</text><path fill="none" d="M547.5 44.37V98.3" style="stroke:#ffaf37;stroke-width:2"/><path fill="#FFAF37" d="m547.5 103.71 4-9-4 4-4-4 4 9z" style="stroke:#ffaf37;stroke-width:2"/><path fill="none" d="M483.9 136.41c-84.87 17.23-235.05 47.71-326.58 66.29" style="stroke:#ffaf37;stroke-width:2"/><path fill="#FFAF37" d="m152.19 203.74 9.612 2.147-4.71-3.133 3.132-4.71-8.034 5.696z" style="stroke:#ffaf37;stroke-width:2"/><path fill="none" d="M152.01 219.5h29.67" style="stroke:#ffaf37;stroke-width:2"/><path fill="#FFAF37" d="m186.86 219.5-9-4 4 4-4 4 9-4z" style="stroke:#ffaf37;stroke-width:2"/><path fill="none" d="M422.2 219.5h30.01" style="stroke:#ffaf37;stroke-width:2"/><path fill="#FFAF37" d="m457.44 219.5-9-4 4 4-4 4 9-4z" style="stroke:#ffaf37;stroke-width:2"/><path fill="none" d="M547.5 141.37v53.93" style="stroke:#ffaf37;stroke-width:2"/><path fill="#FFAF37" d="m547.5 200.71 4-9-4 4-4-4 4 9z" style="stroke:#ffaf37;stroke-width:2"/><path fill="none" d="M587.99 141.02c24.09 12.8 52.59 32.71 66.51 59.98 18.03 35.33-19.75 71.67-50.08 93.67" style="stroke:#ffaf37;stroke-width:2"/><path fill="#FFAF37" d="m600 297.81 9.651-1.963-5.579-.938.938-5.578-5.01 8.479z" style="stroke:#ffaf37;stroke-width:2"/><path fill="none" d="M552.01 238.37c3.89 15.39 9.53 37.69 13.74 54.36" style="stroke:#ffaf37;stroke-width:2"/><path fill="#FFAF37" d="m567.01 297.71 1.671-9.706-2.897 4.859-4.859-2.897 6.085 7.744z" style="stroke:#ffaf37;stroke-width:2"/><path fill="none" d="M589.05 141.07c28.71 13.51 66.59 34.22 94.45 59.93 29.45 27.18 53.61 67.49 66.89 92.32" style="stroke:#ffaf37;stroke-width:2"/><path fill="#FFAF37" d="m752.74 297.77-.648-9.828-1.679 5.402-5.402-1.678 7.729 6.104z" style="stroke:#ffaf37;stroke-width:2"/><path fill="none" d="M502.65 141.04c-42.08 16.44-104.88 41-148.46 58.03" style="stroke:#ffaf37;stroke-width:2"/><path fill="#FFAF37" d="m349.5 200.91 9.839.434-5.185-2.261 2.262-5.186-6.916 7.013z" style="stroke:#ffaf37;stroke-width:2"/><path fill="none" d="M674.66 316.5h30.04" style="stroke:#ffaf37;stroke-width:2"/><path fill="#FFAF37" d="m709.94 316.5-9-4 4 4-4 4 9-4z" style="stroke:#ffaf37;stroke-width:2"/></svg>
